flaticon/productivity/devices.svg

<svg xmlns="http://www.w3.org/2000/svg" width="32" height="32" viewBox="0 0 24 24">
    <path d="M 23.488281 4.5625 L 20.730469 4.5625 L 20.730469 2.105469 C 20.730469 1.824219 20.5 1.597656 20.21875 1.597656 L 0.511719 1.597656 C 0.230469 1.597656 0 1.824219 0 2.105469 L 0 17.964844 C 0 18.246094 0.230469 18.472656 0.511719 18.472656 L 7.472656 18.472656 L 5.632812 21.636719 C 5.402344 22.125 5.816406 22.402344 6.074219 22.402344 L 14.65625 22.402344 C 14.960938 22.402344 15.332031 22.070312 15.097656 21.636719 L 13.257812 18.472656 L 15.894531 18.472656 L 15.894531 18.898438 C 15.894531 19.179688 16.125 19.40625 16.40625 19.40625 L 23.488281 19.40625 C 23.769531 19.40625 24 19.179688 24 18.898438 L 24 5.074219 C 24 4.789062 23.769531 4.5625 23.488281 4.5625 Z M 22.980469 14.894531 L 16.917969 14.894531 L 16.917969 5.582031 L 22.980469 5.582031 Z M 13.769531 21.382812 L 6.960938 21.382812 L 8.652344 18.472656 L 12.078125 18.472656 Z M 1.019531 17.453125 L 1.019531 2.617188 L 19.707031 2.617188 L 19.707031 4.5625 L 16.40625 4.5625 C 16.125 4.5625 15.894531 4.789062 15.894531 5.074219 L 15.894531 17.453125 Z M 22.980469 18.386719 L 16.917969 18.386719 L 16.917969 15.914062 L 22.980469 15.914062 Z M 22.980469 18.386719"/>
    <path d="M 19.339844 16.640625 L 20.554688 16.640625 L 20.554688 17.660156 L 19.339844 17.660156 Z M 19.339844 16.640625"/>
</svg>

<svg xmlns="http://www.w3.org/2000/svg" width="32" height="32" viewBox="0 0 24 24">
    <path d="M23.488 4.563H20.73V2.104a.51.51 0 0 0-.511-.507H.512A.51.51 0 0 0 0 2.105v15.86c0 .281.23.508.512.508h6.96l-1.84 3.164c-.23.488.184.765.442.765h8.582c.305 0 .676-.332.442-.765l-1.84-3.164h2.637v.425c0 .282.23.508.511.508h7.082a.51.51 0 0 0 .512-.508V5.074a.511.511 0 0 0-.512-.511zm-.508 10.332h-6.062V5.582h6.062zm-9.21 6.488H6.96l1.692-2.91h3.426zm-12.75-3.93V2.617h18.687v1.946h-3.3a.511.511 0 0 0-.512.511v12.38zm21.96.934h-6.062v-2.473h6.062zm0 0"/>
    <path d="M19.34 16.64h1.215v1.02H19.34zm0 0"/>
</svg>
